X:0960
M:3/4
L:1/8
Q:1/4=80 "Slow"
K:D
fg|a2 bagf|g2 agfe|f2 gfed|   A4 d/e/f/g/|a3 bag|f2 ed (ef/g/)| f2     ed (ga/b/)|a4
fg|af bagf|ge agfe|fd gfed|{c}B4 FG      |A3 BAG|FG A2  d2    | ef/g/  f2  e2    |d4|]

